_site/assets/img/sprite_social.svg

<?xml version="1.0" encoding="UTF-8" standalone="no"?>
<svg width="182px" height="37px" viewBox="0 0 182 37" version="1.1" xmlns="http://www.w3.org/2000/svg" xmlns:xlink="http://www.w3.org/1999/xlink">
    <!-- Generator: Sketch 41.2 (35397) - http://www.bohemiancoding.com/sketch -->
    <title>Group 2</title>
    <desc>Created with Sketch.</desc>
    <defs></defs>
    <g id="Page-1" stroke="none" stroke-width="1" fill="none" fill-rule="evenodd">
        <g id="Artboard" transform="translate(0.000000, -99.000000)">
            <g id="Group-2" transform="translate(0.000000, 99.000000)">
                <g id="Group" fill="#DFDFDF">
                    <path d="M36.711,34.923 C36.711,36.042 35.804,36.95 34.685,36.95 L25.33,36.95 L25.33,22.733 L30.102,22.733 L30.817,17.193 L25.33,17.193 L25.33,13.655 C25.33,12.051 25.776,10.958 28.076,10.958 L31.01,10.957 L31.01,6.001 C30.502,5.934 28.761,5.783 26.735,5.783 C22.505,5.783 19.609,8.365 19.609,13.107 L19.609,17.193 L14.825,17.193 L14.825,22.733 L19.609,22.733 L19.609,36.95 L2.026,36.95 C0.907,36.95 0,36.042 0,34.923 L0,2.265 C0,1.145 0.907,0.238 2.026,0.238 L34.685,0.238 C35.804,0.238 36.711,1.145 36.711,2.265 L36.711,34.923" id="Facebook"></path>
                    <path d="M84.42,3.577 C82.934,4.479 81.292,5.135 79.537,5.486 C78.139,3.956 76.141,3 73.929,3 C69.689,3 66.248,6.528 66.248,10.879 C66.248,11.497 66.314,12.096 66.446,12.673 C60.06,12.344 54.399,9.211 50.607,4.438 C49.945,5.606 49.567,6.961 49.567,8.404 C49.567,11.136 50.923,13.548 52.986,14.961 C51.728,14.923 50.541,14.565 49.503,13.979 L49.503,14.075 C49.503,17.894 52.152,21.08 55.67,21.801 C55.026,21.986 54.346,22.079 53.645,22.079 C53.15,22.079 52.667,22.031 52.199,21.939 C53.177,25.068 56.013,27.347 59.376,27.408 C56.747,29.522 53.432,30.782 49.833,30.782 C49.213,30.782 48.6,30.746 48,30.674 C51.4,32.906 55.441,34.211 59.779,34.211 C73.914,34.211 81.641,22.207 81.641,11.794 C81.641,11.451 81.635,11.109 81.622,10.773 C83.123,9.662 84.427,8.275 85.453,6.695 C84.077,7.321 82.595,7.745 81.041,7.935 C82.628,6.961 83.846,5.417 84.42,3.577" id="Twitter"></path>
                    <path d="M125.302,2.00676012 C120.207,1.84276012 116.759,4.66276012 114.948,10.4637601 C115.877,10.0797601 116.782,9.89576012 117.66,9.89576012 C119.522,9.89576012 120.343,10.9197601 120.123,12.9807601 C120.011,14.2307601 119.194,16.0437601 117.66,18.4317601 C116.125,20.8147601 114.974,22.0047601 114.209,22.0047601 C113.222,22.0047601 112.321,20.1657601 111.498,16.4797601 C111.224,15.3957601 110.728,12.6307601 110.024,8.18276012 C109.362,4.06376012 107.608,2.13676012 104.763,2.40976012 C103.556,2.52276012 101.748,3.60476012 99.342,5.66576012 C97.586,7.23576012 95.806,8.80976012 94,10.3777601 L95.724,12.5777601 C97.37,11.4357601 98.325,10.8667601 98.599,10.8667601 C99.857,10.8667601 101.034,12.8187601 102.133,16.7247601 C103.12,20.2957601 104.103,23.8777601 105.093,27.4597601 C106.569,31.3637601 108.377,33.3097601 110.511,33.3097601 C113.961,33.3097601 118.183,30.1117601 123.166,23.7117601 C127.981,17.5907601 130.477,12.7677601 130.636,9.23876012 C130.858,4.52676012 129.076,2.11076012 125.302,2.00676012" id="Vimeo"></path>
                </g>
                <path d="M177.601942,0 L149.398058,0 C146.968933,0 145,1.9638873 145,4.38796607 L145,32.6120339 C145,35.0351035 146.968933,37 149.398058,37 L177.601942,37 C180.031067,37 182,35.0351035 182,32.6120339 L182,4.38796607 C182,1.9638873 180.031067,0 177.601942,0 L177.601942,0 Z M171.594223,5.78065079 C171.594223,5.14284156 172.111938,4.62512615 172.749748,4.62512615 L176.21834,4.62512615 C176.857158,4.62512615 177.374874,5.14284156 177.374874,5.78065079 L177.374874,9.2502523 C177.374874,9.88806153 176.857158,10.4057769 176.21834,10.4057769 L172.749748,10.4057769 C172.111938,10.4057769 171.594223,9.88806153 171.594223,9.2502523 L171.594223,5.78065079 L171.594223,5.78065079 Z M163.542891,11.4442353 C167.472684,11.4442353 170.658702,14.6231896 170.658702,18.5428907 C170.658702,22.4636009 167.472684,25.641546 163.542891,25.641546 C159.614107,25.641546 156.428088,22.4636009 156.428088,18.5428907 C156.428088,14.6231896 159.614107,11.4442353 163.542891,11.4442353 L163.542891,11.4442353 Z M178.531408,32.3748739 C178.531408,33.0126831 178.013692,33.5314077 177.374874,33.5314077 L149.625126,33.5314077 C148.986308,33.5314077 148.468592,33.0126831 148.468592,32.3748739 L148.468592,15.0309031 L153.093718,15.0309031 C152.491231,15.8977989 152.287374,17.5155334 152.287374,18.5428907 C152.287374,24.7342825 157.33737,29.7721681 163.542891,29.7721681 C169.74942,29.7721681 174.799416,24.7342825 174.799416,18.5428907 C174.799416,17.5155334 174.653083,15.9230287 173.906282,15.0309031 L178.531408,15.0309031 L178.531408,32.3748739 L178.531408,32.3748739 Z" id="Instagram" fill="#DEDEDE"></path>
            </g>
        </g>
    </g>
</svg>

<svg width="182" height="37" xmlns="http://www.w3.org/2000/svg"><title>Group 2</title><g fill="none" fill-rule="evenodd"><path d="M36.711 34.923a2.027 2.027 0 0 1-2.026 2.027H25.33V22.733h4.772l.715-5.54H25.33v-3.538c0-1.604.446-2.697 2.746-2.697l2.934-.001V6.001c-.508-.067-2.249-.218-4.275-.218-4.23 0-7.126 2.582-7.126 7.324v4.086h-4.784v5.54h4.784V36.95H2.026A2.027 2.027 0 0 1 0 34.923V2.265C0 1.145.907.238 2.026.238h32.659c1.119 0 2.026.907 2.026 2.027v32.658M84.42 3.577a15.107 15.107 0 0 1-4.883 1.909A7.579 7.579 0 0 0 73.929 3c-4.24 0-7.681 3.528-7.681 7.879 0 .618.066 1.217.198 1.794-6.386-.329-12.047-3.462-15.839-8.235a8.022 8.022 0 0 0-1.04 3.966c0 2.732 1.356 5.144 3.419 6.557a7.544 7.544 0 0 1-3.483-.982v.096c0 3.819 2.649 7.005 6.167 7.726a7.325 7.325 0 0 1-2.025.278c-.495 0-.978-.048-1.446-.14.978 3.129 3.814 5.408 7.177 5.469a15.174 15.174 0 0 1-9.543 3.374c-.62 0-1.233-.036-1.833-.108a21.389 21.389 0 0 0 11.779 3.537c14.135 0 21.862-12.004 21.862-22.417 0-.343-.006-.685-.019-1.021a15.763 15.763 0 0 0 3.831-4.078 15.05 15.05 0 0 1-4.412 1.24 7.864 7.864 0 0 0 3.379-4.358m40.882-1.57c-5.095-.164-8.543 2.656-10.354 8.457.929-.384 1.834-.568 2.712-.568 1.862 0 2.683 1.024 2.463 3.085-.112 1.25-.929 3.063-2.463 5.45-1.535 2.384-2.686 3.574-3.451 3.574-.987 0-1.888-1.84-2.711-5.525-.274-1.084-.77-3.85-1.474-8.297-.662-4.12-2.416-6.046-5.261-5.773-1.207.113-3.015 1.195-5.421 3.256A489.177 489.177 0 0 1 94 10.378l1.724 2.2c1.646-1.142 2.601-1.711 2.875-1.711 1.258 0 2.435 1.952 3.534 5.858.987 3.57 1.97 7.153 2.96 10.735 1.476 3.904 3.284 5.85 5.418 5.85 3.45 0 7.672-3.198 12.655-9.598 4.815-6.121 7.311-10.944 7.47-14.473.222-4.712-1.56-7.128-5.334-7.232" fill="#DFDFDF"/><path d="M177.602 0h-28.204A4.392 4.392 0 0 0 145 4.388v28.224A4.393 4.393 0 0 0 149.398 37h28.204A4.393 4.393 0 0 0 182 32.612V4.388A4.392 4.392 0 0 0 177.602 0zm-6.008 5.78c0-.637.518-1.155 1.156-1.155h3.468c.64 0 1.157.518 1.157 1.156v3.47c0 .637-.518 1.155-1.157 1.155h-3.468a1.156 1.156 0 0 1-1.156-1.156V5.78zm-8.051 5.664c3.93 0 7.116 3.18 7.116 7.099 0 3.92-3.186 7.099-7.116 7.099-3.929 0-7.115-3.178-7.115-7.1 0-3.919 3.186-7.098 7.115-7.098zm14.988 20.93c0 .639-.517 1.157-1.156 1.157h-27.75a1.157 1.157 0 0 1-1.156-1.156V15.03h4.625c-.603.867-.807 2.485-.807 3.512 0 6.191 5.05 11.23 11.256 11.23s11.256-5.039 11.256-11.23c0-1.027-.146-2.62-.893-3.512h4.625v17.344z" fill="#DEDEDE"/></g></svg>
